X:1
T:Original
M:3/2
L:1/2
Q:1/2=100
%%MIDI gchord f2z2c2z2c2z2
%%MIDI program 41 % Viola
K:BbMaj
"^Ground"
B,|"Bb"B,2F,|"Gm"(G,/>A,/B,)G,|"Bb"(F,B,)F,|"Bb"B,,2
w: |I       |vi               |I          |I
"^Melody"
B|"Bb"(d/>e/d)c|"Gm"(B/>c/d)e|"Bb"(f/>e/d)c|"Bb"B2B|B2F|"Gm"(G/>A/B)G|"Bb"(FB)F|"Bb"B2
d|"Bb"f2f|"Gm"(d/>c/B)B|"Bb"(d/>e/f)f|"Bb"f2B|"Gm"(d/>e/f)f|"Bb"(gf)(3(B/c/d/)|"Bb"(cB)(3(A/B/c/)|"Bb"(d/>c/B)
d|"Bb"(BF)F|"Gm"(B/>c/d)B|"Bb"(AB)(3(c/B/A/)|"Bb"(B/>c/d)d|(f/e/d/c/)(B/A/)|"Gm"(B/c/d/e/)(f/e/)|"Bb"(d/f/B/d/)(3(c/B/A/)|"Bb"B2

